X:1
T:Title
%%score { 1 | 2 }
L:1/8
M:4/4
K:G
V:1 treble nm="Grand Piano"
V:2 bass 
V:1
 z4 z2 z[Q:1/4=90] D | DBBB G2 DD | DDEE D3 D | D[Fc][Fc][Fc] A2 FE | Dddd B3 D | DBBB G2 DD | %6
 DDEE D3 D | D[Fc][Fc][Fc] A2 FE |[M:7/8] DAA B [B,G]3 |[M:1/8] B |[M:4/4] Bcde d2 BB | %11
 Bcde d3 [Bd] | [Bd] [Ac]2 [Ac] [Ac] B2 B |[M:7/8] BA[^CA] [CB] A3 |[M:1/8] B |[M:4/4] Bcde d2 BB | %16
 Bcde d3 [Bd] | [Bd] [Ac]2 [Ac] [Ac] B2 B |[M:7/8] BAB>A [B,G]3 |] %19
V:2
 z4 z2 z [G,B,] | [G,B,][G,D][G,D][G,D] [G,B,D]2 [G,B,][G,B,] | %2
 [D,F,C][D,F,C][D,G,C][D,G,C] [D,F,C]3 [D,F,C] | %3
 [D,F,C][D,A,][D,A,][D,A,] [D,F,C]2 [D,A,C][D,F,C] | %4
 [G,B,][K:treble][G,B,D][G,B,D][G,B,D] [G,DG]3 [G,B,] | %5
 [G,B,][G,D][G,D][G,D] [G,B,D]2 [G,B,][G,B,] | [D,F,C][D,F,C][D,G,C][D,G,C] [D,F,C]3 [D,F,C] | %7
 [D,F,C][D,A,][D,A,][D,A,] [D,F,C]2 [D,A,C][D,G,C] | %8
[M:7/8] [D,F,C][D,F,C][D,F,C] [D,F,D] [G,,G,]3 |[M:1/8][K:treble] [G,D] | %10
[M:4/4] [G,D][G,A,D][G,B,G][G,CG] [G,B,G]2 [G,DG][G,D] | %11
 [G,D][G,A,D][G,B,G][G,CG] [G,B,G]3[K:bass] [G,D] | %12
 [D,D] [D,D]2 [F,D] [G,D][K:treble] [G,DG]2 [G,D] | %13
[M:7/8][K:bass] [E,G,^C][E,G,C][A,,G,] [A,,G,] [D,F,D]3 |[M:1/8][K:treble] [G,D] | %15
[M:4/4] [G,D][G,A,D][G,B,G][G,CG] [G,B,G]2 [G,DG][G,D] | %16
 [G,D][G,A,D][G,B,G][G,CG] [G,B,G]3[K:bass] [G,D] | %17
 [D,D] [D,D]2 [F,D] [G,D][K:treble] [G,DG]2 [G,D] | %18
[M:7/8][K:bass] [E,G,^C][E,G,C][D,F,D]>[D,F,=C] [G,,G,]3 |] %19

